mpob/mpob-logo-white.svg

<?xml version="1.0" encoding="UTF-8"?>
<!DOCTYPE svg  PUBLIC '-//W3C//DTD SVG 1.1//EN'  'http://www.w3.org/Graphics/SVG/1.1/DTD/svg11.dtd'>
<svg clip-rule="evenodd" fill-rule="evenodd" stroke-linejoin="round" stroke-miterlimit="2" version="1.1" viewBox="0 0 389 291" xml:space="preserve" xmlns="http://www.w3.org/2000/svg">
    <g transform="translate(-112.56 -269.09)">
        <path d="m255.02 392.25c-16.445 45.347-7.087 86.072-1.065 95.605-16.852-32.027 10.595-175.37 195.22-179.37-18.829-12.867-41.887-23.161-67.737-29.981-31.189 11.844-55.507 26.209-74.385 41.797-18.847-15.561-43.135-29.928-74.263-41.768-25.775 6.859-48.747 17.135-67.535 29.952 50.5-0.024 90.563 12.667 121.11 31.675-8.213 9.216-14.888 18.655-20.273 28.124-35.94-15.8-83.224-23.904-142.01-16.821-7.445 13.2-11.521 27.456-11.521 42.335 0 4.143 0.323 8.28 0.968 12.372 58.82-20.308 105.8-22.135 141.48-13.921m52.182-98.871s10.771-13.892 24.167-23.336c-8.04-0.632-16.102-0.949-24.167-0.952-8.05 3e-3 -16.097 0.321-24.123 0.952 13.385 9.444 24.123 23.336 24.123 23.336m0 218.63c-45.144-2.169-46.703-60.041 0-96.048 46.723 36.007 45.152 93.879 0 96.048m193.69-105.77c0-20.399-23.715-55.963-24.492-56.023-218.61-16.384-259.51 168.12-169.2 166.64 54.327-2.135 59.575-62.644 14.457-110.39 6.605-3.721 13.863-7.001 21.831-9.743 21.121 34.168 25.947 70.064 16.817 91.132 6.021-9.535 15.376-50.251-1.065-95.605 35.709-8.213 82.743-6.387 141.65 13.992" fill="#fff"/>
    </g>
    <g transform="translate(-112.56 -269.09)">
        <path d="m237.03 536.69h5.732l4.524 11.972 4.797-11.972h5.788l3.381 22.343h-5.813l-1.637-12.848h-0.06l-5.349 12.848h-2.308l-5.139-12.848h-0.061l-1.857 12.848h-5.781l3.784-22.343h-1e-3zm45.032 22.347h5.813v-7.388h3.308c5.035 0 7.895-2.307 7.895-7.608 0-5.113-3.313-7.345-8.109-7.345h-8.907v22.341zm5.813-17.667h0.988c2.255 0 4.172 0.039 4.172 2.856 0 2.743-2.067 2.743-4.172 2.743h-0.988v-5.599zm43.376-5.433c-6.431 0-12.356 4.767-12.356 11.528 0 7.211 5.176 12.317 12.356 12.317 7.169 0 12.336-5.107 12.336-12.317 0-6.761-5.901-11.528-12.336-11.528m0 5.661c3.463 0 6.324 2.821 6.324 5.896 0 3.863-2.861 6.644-6.324 6.644-3.473 0-6.305-2.781-6.305-6.644 0-3.075 2.832-5.896 6.305-5.896m39.216-0.463h0.419c1.572 0 3.376 0.123 3.376 2.185 0 1.888-1.6 2.16-3.132 2.16h-0.663v-4.345zm3.143 17.907c4.096 0 8.104-1.552 8.104-6.24 0-3.109-1.367-5.245-4.572-5.668v-0.059c1.809-0.913 2.461-2.549 2.461-4.573 0-4.26-2.685-5.817-6.645-5.817h-8.279v22.357h8.931zm-3.143-9.227h0.604c1.887 0 4.767-0.268 4.767 2.397 0 2.456-2.909 2.368-4.621 2.368h-0.749v-4.765h-1e-3z" fill="#fff" fill-rule="nonzero"/>
    </g>
    <g transform="translate(-112.56 -269.09)">
        <path d="m482.62 338.82c-196.19-15.417-259.1 128.85-206.2 173.29-50.643-21.661-27.396-186.42 173.68-193.44 4.427-0.189 22.153 5.903 32.524 20.153" fill="#fff"/>
    </g>
</svg>

<?xml version="1.0" encoding="UTF-8" standalone="no"?>
<!DOCTYPE svg PUBLIC "-//W3C//DTD SVG 1.1//EN" "http://www.w3.org/Graphics/SVG/1.1/DTD/svg11.dtd">
<svg width="100%" height="100%" viewBox="0 0 389 291" version="1.1" xmlns="http://www.w3.org/2000/svg" xmlns:xlink="http://www.w3.org/1999/xlink" xml:space="preserve" xmlns:serif="http://www.serif.com/" style="fill-rule:evenodd;clip-rule:evenodd;stroke-linejoin:round;stroke-miterlimit:2;">
    <g transform="matrix(1,0,0,1,-112.564,-269.091)">
        <path d="M255.015,392.249C238.57,437.596 247.928,478.321 253.95,487.854C237.098,455.827 264.545,312.485 449.175,308.486C430.346,295.619 407.288,285.325 381.438,278.505C350.249,290.349 325.931,304.714 307.053,320.302C288.206,304.741 263.918,290.374 232.79,278.534C207.015,285.393 184.043,295.669 165.255,308.486C215.755,308.462 255.818,321.153 286.367,340.161C278.154,349.377 271.479,358.816 266.094,368.285C230.154,352.485 182.87,344.381 124.086,351.464C116.641,364.664 112.565,378.92 112.565,393.799C112.565,397.942 112.888,402.079 113.533,406.171C172.353,385.863 219.336,384.036 255.016,392.25M307.198,293.379C307.198,293.379 317.969,279.487 331.365,270.043C323.325,269.411 315.263,269.094 307.198,269.091C299.148,269.094 291.101,269.412 283.075,270.043C296.46,279.487 307.198,293.379 307.198,293.379M307.198,512.01C262.054,509.841 260.495,451.969 307.198,415.962C353.921,451.969 352.35,509.841 307.198,512.01M500.885,406.241C500.885,385.842 477.17,350.278 476.393,350.218C257.786,333.834 216.886,518.343 307.198,516.854C361.525,514.719 366.773,454.21 321.655,406.465C328.26,402.744 335.518,399.464 343.486,396.722C364.607,430.89 369.433,466.786 360.303,487.854C366.324,478.319 375.679,437.603 359.238,392.249C394.947,384.036 441.981,385.862 500.885,406.241" style="fill:white;"/>
    </g>
    <g transform="matrix(1,0,0,1,-112.564,-269.091)">
        <path d="M237.027,536.687L242.759,536.687L247.283,548.659L252.08,536.687L257.868,536.687L261.249,559.03L255.436,559.03L253.799,546.182L253.739,546.182L248.39,559.03L246.082,559.03L240.943,546.182L240.882,546.182L239.025,559.03L233.244,559.03L237.028,536.687L237.027,536.687ZM282.059,559.034L287.872,559.034L287.872,551.646L291.18,551.646C296.215,551.646 299.075,549.339 299.075,544.038C299.075,538.925 295.762,536.693 290.966,536.693L282.059,536.693L282.059,559.034ZM287.872,541.367L288.86,541.367C291.115,541.367 293.032,541.406 293.032,544.223C293.032,546.966 290.965,546.966 288.86,546.966L287.872,546.966L287.872,541.367ZM331.248,535.934C324.817,535.934 318.892,540.701 318.892,547.462C318.892,554.673 324.068,559.779 331.248,559.779C338.417,559.779 343.584,554.672 343.584,547.462C343.584,540.701 337.683,535.934 331.248,535.934M331.248,541.595C334.711,541.595 337.572,544.416 337.572,547.491C337.572,551.354 334.711,554.135 331.248,554.135C327.775,554.135 324.943,551.354 324.943,547.491C324.943,544.416 327.775,541.595 331.248,541.595M370.464,541.132L370.883,541.132C372.455,541.132 374.259,541.255 374.259,543.317C374.259,545.205 372.659,545.477 371.127,545.477L370.464,545.477L370.464,541.132ZM373.607,559.039C377.703,559.039 381.711,557.487 381.711,552.799C381.711,549.69 380.344,547.554 377.139,547.131L377.139,547.072C378.948,546.159 379.6,544.523 379.6,542.499C379.6,538.239 376.915,536.682 372.955,536.682L364.676,536.682L364.676,559.039L373.607,559.039ZM370.464,549.812L371.068,549.812C372.955,549.812 375.835,549.544 375.835,552.209C375.835,554.665 372.926,554.577 371.214,554.577L370.465,554.577L370.465,549.812L370.464,549.812Z" style="fill:white;fill-rule:nonzero;"/>
    </g>
    <g transform="matrix(1,0,0,1,-112.564,-269.091)">
        <path d="M482.618,338.823C286.431,323.406 223.523,467.672 276.418,512.112C225.775,490.451 249.022,325.687 450.094,318.669C454.521,318.48 472.247,324.572 482.618,338.822" style="fill:white;"/>
    </g>
</svg>
